X: 1
T:Brown Coffer, The
T:An Comhra Donn
M:4/4
L:1/8
R:Hornpipe
K:D
FG[|:ABAG FAde|fgfe dcdA|BGdB AFDE|FEED E2FG|!
ABAG FAde|fgfe dcdA|BGdB AFEG|1F2D2 D2FG:|2F2D2 D2fg|!
|:agfd gfeA|dcde fdAF|GABG FADF|Efgf eAce|!
agfd gfeA|dcde fdAF|GABG FAEG|1F2D2 D2fg:|2F2D2 D2FG|]!
